svg/icon-warning.svg

<svg viewBox="0 0 32 30" xmlns="http://www.w3.org/2000/svg"><path d="M31.652326,26.2762624 L17.9731849,1.1965328 C17.7711968,0.828437376 17.4921034,0.537447316 17.1353956,0.323880716 C16.7794513,0.110059642 16.3933519,0.00311729622 15.9777972,0.00311729622 C15.5621789,0.00311729622 15.1760795,0.110314115 14.8199443,0.323880716 C14.4638091,0.537447316 14.1845885,0.828500994 13.9827913,1.1965328 L0.303204771,26.2762624 C-0.112477137,27.0246044 -0.100644135,27.7726918 0.338767396,28.5207793 C0.540819085,28.8649543 0.816922465,29.1382584 1.16714115,29.3398012 C1.51761431,29.5419165 1.89455268,29.6430696 2.29840159,29.6430696 L29.6574473,29.6430696 C30.0616779,29.6430696 30.4384254,29.5419165 30.7888986,29.3398012 C31.1393718,29.1382584 31.4149662,28.8649543 31.6172724,28.5207793 C32.0566203,27.772501 32.0683897,27.0246044 31.652326,26.2762624 Z M18.2582584,24.4948867 C18.2582584,24.660994 18.2015746,24.8005726 18.0892883,24.9132406 C17.976493,25.0260994 17.842831,25.0822107 17.6883022,25.0822107 L14.2683101,25.0822107 C14.1139722,25.0822107 13.9803101,25.0260994 13.8675785,24.9132406 C13.7547197,24.8003181 13.6983539,24.660994 13.6983539,24.4948867 L13.6983539,21.1105209 C13.6983539,20.9444135 13.7547197,20.8050895 13.8675785,20.692167 C13.9803101,20.5793082 14.1137177,20.5231968 14.2683101,20.5231968 L17.6879841,20.5231968 C17.8425765,20.5231968 17.976175,20.5793082 18.0889702,20.692167 C18.2016382,20.8050895 18.2580676,20.9444135 18.2580676,21.1105209 L18.2580676,24.4948867 L18.2582584,24.4948867 Z M18.2228231,17.8332883 C18.2105447,17.952 18.1481352,18.0499085 18.0356581,18.1272048 C17.922672,18.204501 17.7832843,18.2427992 17.6169861,18.2427992 L14.3216223,18.2427992 C14.1555149,18.2427992 14.0130099,18.2043101 13.894171,18.1272048 C13.7752684,18.0496541 13.7160398,17.952 13.7160398,17.8329066 L13.4132803,9.6932008 C13.4132803,9.52677535 13.4727634,9.40221074 13.5914115,9.31918887 C13.7457495,9.18864414 13.8883181,9.12330815 14.0190537,9.12330815 L17.9376859,9.12330815 C18.0684851,9.12330815 18.2109901,9.18838966 18.365328,9.31918887 C18.4840398,9.40227435 18.5430775,9.51506958 18.5430775,9.65757455 L18.2228231,17.8332883 Z" fill="currentColor" fill-rule="nonzero"/></svg>

<svg viewBox="0 0 32 30" xmlns="http://www.w3.org/2000/svg"><path d="M31.652 26.276L17.973 1.196a2.272 2.272 0 0 0-.838-.872 2.208 2.208 0 0 0-1.157-.32c-.416 0-.802.106-1.158.32a2.274 2.274 0 0 0-.837.873L.303 26.277c-.415.748-.404 1.496.036 2.244.202.344.478.617.828.819.35.202.728.303 1.131.303h27.36c.404 0 .78-.101 1.13-.303.351-.202.627-.475.83-.82.439-.747.45-1.495.034-2.244zm-13.394-1.781a.57.57 0 0 1-.169.418.548.548 0 0 1-.4.17h-3.42a.547.547 0 0 1-.401-.17.568.568 0 0 1-.17-.418V21.11c0-.167.057-.306.17-.419a.547.547 0 0 1 .4-.169h3.42c.155 0 .288.056.401.17.113.112.17.251.17.418v3.384zm-.035-6.662a.399.399 0 0 1-.187.294.724.724 0 0 1-.419.116h-3.295a.768.768 0 0 1-.428-.116c-.119-.077-.178-.175-.178-.294l-.303-8.14c0-.166.06-.29.178-.374.155-.13.297-.196.428-.196h3.919c.13 0 .273.065.427.196a.392.392 0 0 1 .178.339l-.32 8.175z" fill="currentColor" fill-rule="nonzero"/></svg>
